images_elementary_svg/cmd/sc_removefiltersort.svg

<svg height="16" width="16" xmlns="http://www.w3.org/2000/svg" xmlns:xlink="http://www.w3.org/1999/xlink"><linearGradient id="a" gradientUnits="userSpaceOnUse" x1="2.903" x2="12.828" y1="8.504" y2="8.504"><stop offset="0" stop-color="#e3e3e4"/><stop offset=".5" stop-color="#fcfcfc"/><stop offset="1" stop-color="#e3e3e4"/></linearGradient><linearGradient id="b" gradientUnits="userSpaceOnUse" x1=".918" x2="14.813" y1="5.675" y2="3.789"><stop offset="0" stop-opacity=".34"/><stop offset="1" stop-opacity=".247"/></linearGradient><linearGradient id="c" gradientTransform="matrix(.36872 0 0 .38857 7.576 7.143)" gradientUnits="userSpaceOnUse" x1="11.192" x2="11.192" y1="4.064" y2="30.298"><stop offset="0" stop-color="#ed5353"/><stop offset="1" stop-color="#c6262e"/></linearGradient><linearGradient id="d" gradientTransform="matrix(.196 -.20632 .196 .20632 2.2 11.896)" gradientUnits="userSpaceOnUse" x1="28.449" x2="16.331" xlink:href="#e" y1="20.584" y2="32.702"/><linearGradient id="e"><stop offset="0" stop-color="#fff"/><stop offset=".508" stop-color="#fff" stop-opacity=".235"/><stop offset=".835" stop-color="#fff" stop-opacity=".157"/><stop offset="1" stop-color="#fff" stop-opacity=".392"/></linearGradient><linearGradient id="f" gradientTransform="matrix(.19598879 -.20631255 .19598879 .20631255 2.398062 11.792079)" gradientUnits="userSpaceOnUse" x1="36.011" x2="16.331" xlink:href="#e" y1="13.023" y2="32.702"/><g stroke-width=".967" transform="matrix(1.0076 0 0 1.06043 .075 -1.018)"><path d="m.44 1.44 14.88.006-.004 2.626-6.145 5.31v6.18h-2.621v-6.182l-6.11-5.308z" fill="url(#a)" fill-rule="evenodd" stroke="url(#b)" stroke-linejoin="round"/><path d="m1.312 2.32 13.006.05v1.32l-6.02 5.25v5.736h-.874v-5.736l-6.112-5.295z" fill="none" stroke="#fdfdfb"/></g><path d="m15.503 14.06-2.028-2.06 1.952-2.16-1.407-1.337-2.01 2.057-2.05-2.057-1.46 1.387 2.05 2.1-2.05 2.067 1.463 1.44 2.05-2.16 2.05 2.16z" fill="url(#c)" stroke="#b10000" stroke-linejoin="round"/><g fill="none"><path d="m14.024 9.92-1.996 2.06-2.082-2.058" opacity=".5" stroke="url(#f)" stroke-linecap="square" stroke-linejoin="round"/><path d="m14.365 14.47-1.658-1.9m-1.422.082-1.73 1.723" opacity=".4" stroke="url(#d)"/></g></svg>

<svg xmlns="http://www.w3.org/2000/svg" xmlns:xlink="http://www.w3.org/1999/xlink" height="16" width="16"><defs><linearGradient id="b"><stop offset="0" stop-color="#e3e3e4"/><stop offset=".5" stop-color="#fcfcfc"/><stop offset="1" stop-color="#e3e3e4"/></linearGradient><linearGradient id="a"><stop offset="0" stop-color="#c2c3c4"/><stop offset=".095" stop-color="#c4c5c8"/><stop offset="1" stop-color="#fcfcfc"/></linearGradient><linearGradient id="c"><stop offset="0" stop-opacity=".34"/><stop offset="1" stop-opacity=".247"/></linearGradient><linearGradient xlink:href="#b" id="e" x1="2.903" y1="8.504" x2="12.828" y2="8.504" gradientUnits="userSpaceOnUse"/><linearGradient xlink:href="#c" id="f" x1=".918" y1="5.675" x2="14.813" y2="3.789" gradientUnits="userSpaceOnUse"/><linearGradient id="g" gradientTransform="matrix(.36872 0 0 .38857 7.576 7.143)" gradientUnits="userSpaceOnUse" x1="11.192" x2="11.192" y1="4.064" y2="30.298"><stop offset="0" stop-color="#ed5353"/><stop offset="1" stop-color="#c6262e"/></linearGradient><linearGradient id="i" gradientTransform="matrix(.196 -.20632 .196 .20632 2.2 11.896)" gradientUnits="userSpaceOnUse" x1="28.449" x2="16.331" xlink:href="#d" y1="20.584" y2="32.702"/><linearGradient id="d"><stop offset="0" stop-color="#fff"/><stop offset=".508" stop-color="#fff" stop-opacity=".235"/><stop offset=".835" stop-color="#fff" stop-opacity=".157"/><stop offset="1" stop-color="#fff" stop-opacity=".392"/></linearGradient><linearGradient id="h" gradientTransform="scale(.27717 .29177) rotate(-45 53.112 9.764)" gradientUnits="userSpaceOnUse" x1="36.011" x2="16.331" xlink:href="#d" y1="13.023" y2="32.702"/></defs><g stroke-width=".967"><path d="M.44 1.44l14.88.006-.004 2.626-6.145 5.31v6.18H6.55V9.38L.44 4.072z" fill="url(#e)" fill-rule="evenodd" stroke="url(#f)" stroke-linejoin="round" transform="matrix(1.0076 0 0 1.06043 .075 -1.018)"/><path d="M1.312 2.32l13.006.05V3.69L8.298 8.94v5.736h-.874V8.94L1.312 3.645z" fill="none" stroke="#fdfdfb" transform="matrix(1.0076 0 0 1.06043 .075 -1.018)"/></g><path d="M15.503 14.06L13.475 12l1.952-2.16-1.407-1.337-2.01 2.057-2.05-2.057L8.5 9.89l2.05 2.1-2.05 2.067 1.463 1.44 2.05-2.16 2.05 2.16z" fill="url(#g)" stroke="#b10000" stroke-linejoin="round"/><path d="M14.024 9.92l-1.996 2.06-2.082-2.058" opacity=".5" fill="none" stroke="url(#h)" stroke-linecap="square" stroke-linejoin="round"/><path d="M14.365 14.47l-1.658-1.9m-1.422.082l-1.73 1.723" opacity=".4" fill="none" stroke="url(#i)"/></svg>
